assets/icons/24px/stroke/receipt-24px.svg

<svg width="24" height="24" viewBox="0 0 24 24" fill="none" xmlns="http://www.w3.org/2000/svg">
<g clip-path="url(#clip0_878_22603)">
<path fill-rule="evenodd" clip-rule="evenodd" d="M7 7C7 6.44771 7.44772 6 8 6L16 6C16.5523 6 17 6.44771 17 7C17 7.55228 16.5523 8 16 8L8 8C7.44772 8 7 7.55228 7 7ZM7 11.5C7 10.9477 7.44772 10.5 8 10.5L11.5 10.5C12.0523 10.5 12.5 10.9477 12.5 11.5C12.5 12.0523 12.0523 12.5 11.5 12.5L8 12.5C7.44772 12.5 7 12.0523 7 11.5ZM7 16C7 15.4477 7.44772 15 8 15L10 15C10.5523 15 11 15.4477 11 16C11 16.5523 10.5523 17 10 17L8 17C7.44772 17 7 16.5523 7 16ZM14 11.5C14 10.9477 14.4477 10.5 15 10.5L16 10.5C16.5523 10.5 17 10.9477 17 11.5C17 12.0523 16.5523 12.5 16 12.5L15 12.5C14.4477 12.5 14 12.0523 14 11.5ZM14 16C14 15.4477 14.4477 15 15 15L16 15C16.5523 15 17 15.4477 17 16C17 16.5523 16.5523 17 16 17L15 17C14.4477 17 14 16.5523 14 16Z" fill="white"/>
<path fill-rule="evenodd" clip-rule="evenodd" d="M3.00001 18.2388C3.00001 18.2166 3.00001 18.1944 3.00001 18.1722L3.00001 6.93416C2.99996 6.04768 2.99992 5.28386 3.08215 4.6722C3.17029 4.01668 3.36903 3.38833 3.8787 2.87867C4.38836 2.369 5.01671 2.17026 5.67223 2.08213C6.28388 1.9999 7.04769 1.99994 7.93416 1.99999L16.0658 2.00002C16.9523 1.99997 17.7161 1.99993 18.3278 2.08217C18.9833 2.1703 19.6117 2.36905 20.1213 2.87871C20.631 3.38838 20.8297 4.01672 20.9179 4.67224C21.0001 5.2839 21.0001 6.04772 21 6.93422L21 18.1722C21 18.1945 21 18.2167 21 18.2388C21.0001 18.8249 21.0002 19.3708 20.9366 19.8036C20.8672 20.2753 20.6929 20.8384 20.1549 21.219C19.6169 21.5995 19.0278 21.5762 18.56 21.4845C18.1307 21.4003 17.616 21.2184 17.0634 21.023C17.0425 21.0157 17.0216 21.0083 17.0006 21.0008L16.8718 20.9553C16.6588 20.8801 16.552 20.8431 16.4734 20.822C16.4719 20.8216 16.4705 20.8213 16.4691 20.8209C16.4678 20.8214 16.4664 20.822 16.465 20.8226C16.3897 20.8536 16.2886 20.904 16.087 21.006L15.281 21.4141C15.2532 21.4281 15.2247 21.4427 15.1955 21.4577C14.8823 21.6181 14.4853 21.8215 14.0434 21.8405C13.9028 21.8466 13.7618 21.8378 13.623 21.8142C13.1869 21.7402 12.8184 21.4889 12.5277 21.2906C12.5006 21.2721 12.4741 21.254 12.4484 21.2367C12.2175 21.0808 12.0971 21.0006 12.0062 20.9503C12.0041 20.9491 12.002 20.948 12 20.9469C11.998 20.948 11.996 20.9491 11.9938 20.9503C11.9029 21.0006 11.7825 21.0808 11.5516 21.2367C11.5259 21.254 11.4994 21.2721 11.4723 21.2906C11.1816 21.4889 10.8131 21.7402 10.377 21.8142C10.2382 21.8378 10.0973 21.8466 9.9566 21.8405C9.51467 21.8215 9.11766 21.6181 8.80449 21.4577C8.77526 21.4427 8.74677 21.4281 8.71903 21.4141L7.91298 21.006C7.71143 20.904 7.61028 20.8536 7.535 20.8226C7.5336 20.822 7.53223 20.8214 7.53091 20.8209C7.52953 20.8212 7.5281 20.8216 7.52664 20.822C7.44799 20.8431 7.3412 20.8801 7.12819 20.9553L6.99937 21.0008C6.97838 21.0083 6.95745 21.0157 6.93657 21.023C6.38396 21.2184 5.86933 21.4003 5.44001 21.4845C4.97219 21.5762 4.38316 21.5995 3.84513 21.2189C3.3071 20.8384 3.13281 20.2752 3.06347 19.8036C2.99983 19.3707 2.99992 18.8249 3.00001 18.2388ZM5.0439 19.524C5.04333 19.5203 5.04277 19.5165 5.0422 19.5127C5.0026 19.2433 5.00001 18.8485 5.00001 18.1722L5.00001 7C5.00001 6.02891 5.00214 5.4012 5.06432 4.93869C5.12263 4.50495 5.21678 4.36901 5.29291 4.29288C5.36903 4.21676 5.50498 4.12261 5.93872 4.0643C6.40123 4.00212 7.02894 3.99999 8.00002 4L16 4.00002C16.9711 4.00003 17.5988 4.00215 18.0613 4.06434C18.495 4.12265 18.631 4.2168 18.7071 4.29292C18.7832 4.36905 18.8774 4.505 18.9357 4.93873C18.9979 5.40124 19 6.02895 19 7.00002L19 18.1722C19 18.8485 18.9974 19.2434 18.9578 19.5127C18.9573 19.5166 18.9567 19.5203 18.9561 19.524C18.9524 19.5233 18.9487 19.5226 18.9449 19.5219C18.6777 19.4695 18.3046 19.3404 17.6669 19.1151L17.5381 19.0696C17.5113 19.0601 17.4839 19.0503 17.4557 19.0402C17.1486 18.9301 16.7577 18.79 16.3396 18.817C15.9215 18.844 15.552 19.0333 15.2616 19.1819C15.235 19.1955 15.209 19.2089 15.1837 19.2217L14.3776 19.6297C14.1594 19.7402 14.0473 19.7961 13.9637 19.8303C13.9618 19.8311 13.96 19.8319 13.9582 19.8326C13.9565 19.8317 13.9547 19.8307 13.9529 19.8297C13.8743 19.7853 13.7701 19.7158 13.5673 19.579L13.5407 19.561C13.3474 19.4305 13.1528 19.2991 12.9752 19.2007C12.7739 19.0892 12.5315 18.983 12.2353 18.9479C12.079 18.9294 11.921 18.9294 11.7647 18.9479C11.4685 18.983 11.2261 19.0892 11.0248 19.2007C10.8472 19.2991 10.6526 19.4305 10.4593 19.561C10.4504 19.567 10.4416 19.573 10.4327 19.579C10.2299 19.7158 10.1257 19.7853 10.0471 19.8297C10.0453 19.8307 10.0435 19.8317 10.0418 19.8326C10.04 19.8319 10.0382 19.8311 10.0363 19.8303C9.95273 19.7961 9.84064 19.7402 9.62236 19.6297L8.81632 19.2217C8.79102 19.2088 8.76504 19.1955 8.73838 19.1819C8.44804 19.0332 8.07845 18.844 7.66036 18.817C7.24227 18.79 6.85142 18.9301 6.54436 19.0402C6.51617 19.0503 6.48869 19.0601 6.46196 19.0696L6.33313 19.1151C5.69545 19.3404 5.3223 19.4694 5.05516 19.5218C5.05133 19.5226 5.04758 19.5233 5.0439 19.524Z" fill="white"/>
</g>
<defs>
<clipPath id="clip0_878_22603">
<rect width="24" height="24" fill="white"/>
</clipPath>
</defs>
</svg>

<svg width="24" height="24" fill="none" xmlns="http://www.w3.org/2000/svg"><g clip-path="url(#clip0_878_22603)" fill-rule="evenodd" clip-rule="evenodd" fill="#fff"><path d="M7 7a1 1 0 0 1 1-1h8a1 1 0 1 1 0 2H8a1 1 0 0 1-1-1zm0 4.5a1 1 0 0 1 1-1h3.5a1 1 0 1 1 0 2H8a1 1 0 0 1-1-1zM7 16a1 1 0 0 1 1-1h2a1 1 0 1 1 0 2H8a1 1 0 0 1-1-1zm7-4.5a1 1 0 0 1 1-1h1a1 1 0 1 1 0 2h-1a1 1 0 0 1-1-1zm0 4.5a1 1 0 0 1 1-1h1a1 1 0 1 1 0 2h-1a1 1 0 0 1-1-1z"/><path d="M3 18.239V6.934c0-.886 0-1.65.082-2.262.088-.655.287-1.284.797-1.793.51-.51 1.138-.709 1.793-.797C6.284 2 7.048 2 7.934 2h8.132c.886 0 1.65 0 2.262.082.655.088 1.284.287 1.793.797.51.51.709 1.138.797 1.793C21 5.284 21 6.048 21 6.934V18.24c0 .586 0 1.132-.063 1.565-.07.471-.244 1.034-.782 1.415-.538.38-1.127.357-1.595.265-.43-.084-.944-.266-1.497-.461a9.527 9.527 0 0 1-.062-.022l-.13-.046a6.343 6.343 0 0 0-.398-.133l-.004-.001a6.281 6.281 0 0 0-.382.185l-.806.408-.086.044c-.313.16-.71.364-1.152.383a1.993 1.993 0 0 1-.42-.027c-.436-.074-.805-.325-1.095-.523l-.08-.054a6.93 6.93 0 0 0-.442-.287L12 20.947l-.006.003c-.091.05-.211.13-.442.287l-.08.054c-.29.198-.659.45-1.095.523-.139.024-.28.033-.42.026-.442-.018-.84-.222-1.153-.382l-.085-.044-.806-.408a6.273 6.273 0 0 0-.378-.183l-.004-.002-.004.001a6.331 6.331 0 0 0-.399.133L7 21.001a9.736 9.736 0 0 1-.062.022c-.553.195-1.068.377-1.497.462-.468.091-1.057.114-1.595-.266s-.712-.944-.782-1.415C3 19.37 3 18.824 3 18.239zm2.044 1.285l-.002-.011c-.04-.27-.042-.665-.042-1.34V7c0-.971.002-1.599.064-2.061.059-.434.153-.57.229-.646.076-.076.212-.17.646-.229C6.4 4.002 7.029 4 8 4h8c.971 0 1.599.002 2.061.064.434.059.57.153.646.229.076.076.17.212.229.646C18.998 5.4 19 6.029 19 7v11.172c0 .677-.003 1.071-.042 1.34a.338.338 0 0 1-.002.012l-.011-.002c-.267-.052-.64-.182-1.278-.407l-.129-.045-.082-.03c-.307-.11-.698-.25-1.116-.223-.418.027-.788.216-1.078.365l-.078.04-.806.408c-.219.11-.33.166-.414.2l-.006.003-.005-.003a6.763 6.763 0 0 1-.386-.251l-.026-.018c-.194-.13-.388-.262-.566-.36a1.99 1.99 0 0 0-.74-.253 2.002 2.002 0 0 0-.47 0 1.99 1.99 0 0 0-.74.253c-.178.098-.372.23-.566.36l-.026.018a6.763 6.763 0 0 1-.386.25l-.005.004-.006-.003a6.664 6.664 0 0 1-.414-.2l-.806-.408-.078-.04c-.29-.149-.66-.338-1.078-.365-.418-.027-.809.113-1.116.223l-.082.03-.129.045c-.638.225-1.01.354-1.278.407l-.011.002z"/></g><defs><clipPath id="clip0_878_22603"><path fill="#fff" d="M0 0H24V24H0z"/></clipPath></defs></svg>
